svgs/sharp-light/message-check.svg

<svg xmlns="http://www.w3.org/2000/svg" viewBox="0 0 512 512"><!--! Font Awesome Pro 6.6.0 by @fontawesome - https://fontawesome.com License - https://fontawesome.com/license (Commercial License) Copyright 2024 Fonticons, Inc. --><path d="M160 416l-32 0-96 0L0 416l0-32L0 32 0 0 32 0 480 0l32 0 0 32 0 352 0 32-32 0-176 0L192 490.7 160 512l0-38.5 0-25.5 0-32zm0-32l32 0 0 32 0 36.2 94.2-62.8 8.1-5.4 9.7 0 176 0 0-352L32 32l0 352 128 0zM363.3 147.3l-128 128L224 286.6l-11.3-11.3-64-64L137.4 200 160 177.4l11.3 11.3L224 241.4 340.7 124.7 352 113.4 374.6 136l-11.3 11.3z"/></svg>

<svg xmlns="http://www.w3.org/2000/svg" viewBox="0 0 512 512"><!--! Font Awesome Pro 6.4.0 by @fontawesome - https://fontawesome.com License - https://fontawesome.com/license (Commercial License) Copyright 2023 Fonticons, Inc. --><path d="M160 416H128 32 0V384 32 0H32 480h32V32 384v32H480 304L192 490.7 160 512V473.5 448 416zm0-32h32v32 36.2l94.2-62.8 8.1-5.4H304 480V32H32V384H160zM363.3 147.3l-128 128L224 286.6l-11.3-11.3-64-64L137.4 200 160 177.4l11.3 11.3L224 241.4 340.7 124.7 352 113.4 374.6 136l-11.3 11.3z"/></svg>
